Source/HTML/PIC/right-arrow.svg

<svg width="18" height="18" viewBox="0 0 18 18" xmlns="http://www.w3.org/2000/svg" fill="currentColor">
<path d="M14 9L14.7071 9.70711L15.4142 9L14.7071 8.29289L14 9ZM5.29289 1.70711L13.2929 9.70711L14.7071 8.29289L6.70711 0.292894L5.29289 1.70711ZM13.2929 8.29289L5.29289 16.2929L6.70711 17.7071L14.7071 9.70711L13.2929 8.29289Z"/>
</svg>

<svg width="18" height="18" xmlns="http://www.w3.org/2000/svg" fill="currentColor"><path d="M14 9l.707.707.707-.707-.707-.707L14 9zM5.293 1.707l8 8 1.414-1.414-8-8-1.414 1.414zm8 6.586l-8 8 1.414 1.414 8-8-1.414-1.414z"/></svg>
